X:392
T:Malts on the optics
R:Reel
C:Hamish Moore
S:George
Z:Transcription, chords:Mike Long
M:C|
L:1/8
K:D
"Bm"BBfB Bfec|"Bm"BBfB "A"BdcA|"Bm"BBfB Bfec|"G"dcBd "A"cABc:|
|:"Bm"Bffe f2ef|"Bm"f2ef "A"fedB|"Bm"Bffe f2ef|"G"gGBd "A"cABc:|
